assets/img/braze_icons/calendar-heart-02.svg

<svg fill="none" height="24" viewBox="0 0 24 24" width="24" xmlns="http://www.w3.org/2000/svg"><g clip-rule="evenodd" fill="#801ed7" fill-rule="evenodd"><path d="m18.9973 16.8306c-.7998-.909-2.1334-1.1535-3.1354-.3212-1.002.8324-1.1431 2.2241-.3562 3.2085.4679.5854 1.614 1.6352 2.4662 2.39.3518.3116.5277.4674.7395.5306.1811.0541.3906.0541.5718 0 .2117-.0632.3876-.219.7394-.5306.8522-.7548 1.9983-1.8046 2.4662-2.39.7869-.9844.6631-2.3848-.3562-3.2085-1.0192-.8236-2.3356-.5878-3.1353.3212z"/><path d="m16 1c.5523 0 1 .44772 1 1v1.00163c.4755.00326.891.01309 1.2518.04256.5621.04593 1.0788.14449 1.5642.39178.7526.3835 1.3645.99542 1.748 1.74807.2473.48533.3459 1.00204.3918 1.56413.0442.54119.0442 1.20555.0442 2.01051v4.33792c0 .3681 0 .5521-.0571.6612-.059.1124-.1133.1647-.2279.2193-.1111.0529-.3382.0442-.7924.0268-.6685-.0255-1.3274.1151-1.9263.3895-1.3559-.6223-3.0285-.572-4.4123.5776-1.823 1.5143-2.1219 4.1423-.6405 5.9956.1438.1799.3278.3843.5356.601.4592.4788.6887.7182.7004.9005.0104.163-.0517.3088-.1766.4141-.1397.1178-.4599.1178-1.1003.1178h-6.14392c-.80496 0-1.46931 0-2.0105-.0442-.5621-.0459-1.0788-.1445-1.56414-.3918-.75265-.3835-1.36457-.9954-1.74806-1.748-.2473-.4854-.34586-1.0021-.39178-1.5642-.04422-.5412-.04421-1.2055-.0442-2.0105v-8.4826c-.00001-.80495-.00002-1.46934.0442-2.01053.04592-.56209.14448-1.0788.39178-1.56413.38349-.75265.99541-1.36457 1.74806-1.74807.48534-.24729 1.00204-.34585 1.56414-.39178.3608-.02947.77636-.0393 1.25182-.04256v-1.00163c0-.55228.44772-1 1-1 .55229 0 1 .44772 1 1v1h6v-1c0-.55228.4477-1 1-1zm-9 4.00176v.99824c0 .55228.44772 1 1 1 .55229 0 1-.44772 1-1v-1h6v1c0 .55228.4477 1 1 1s1-.44772 1-1v-.99824c.4455.00313.7954.01181 1.089.03579.4384.03582.6626.10075.819.18044.3763.19174.6823.49771.874.87403.0797.1564.1446.3806.1804.81902.0368.45009.0376 1.03238.0376 1.88896v.2h-16v-.2c0-.85658.00078-1.43887.03755-1.88896.03582-.43842.10075-.66262.18044-.81902.19175-.37632.49771-.68229.87403-.87403.1564-.07969.3806-.14462.81902-.18044.29359-.02398.64343-.03266 1.08896-.03579z"/></g></svg>

<svg width="24" height="24" viewBox="0 0 24 24" fill="none" xmlns="http://www.w3.org/2000/svg">
<path fill-rule="evenodd" clip-rule="evenodd" d="M18.9973 16.8306C18.1975 15.9216 16.8639 15.6771 15.8619 16.5094C14.8599 17.3418 14.7188 18.7335 15.5057 19.7179C15.9736 20.3033 17.1197 21.3531 17.9719 22.1079C18.3237 22.4195 18.4996 22.5753 18.7114 22.6385C18.8925 22.6926 19.102 22.6926 19.2832 22.6385C19.4949 22.5753 19.6708 22.4195 20.0226 22.1079C20.8748 21.3531 22.0209 20.3033 22.4888 19.7179C23.2757 18.7335 23.1519 17.3331 22.1326 16.5094C21.1134 15.6858 19.797 15.9216 18.9973 16.8306Z" fill="#801ED7"/>
<path fill-rule="evenodd" clip-rule="evenodd" d="M16 1C16.5523 1 17 1.44772 17 2V3.00163C17.4755 3.00489 17.891 3.01472 18.2518 3.04419C18.8139 3.09012 19.3306 3.18868 19.816 3.43597C20.5686 3.81947 21.1805 4.43139 21.564 5.18404C21.8113 5.66937 21.9099 6.18608 21.9558 6.74817C22 7.28936 22 7.95372 22 8.75868V13.0966C22 13.4647 22 13.6487 21.9429 13.7578C21.8839 13.8702 21.8296 13.9225 21.715 13.9771C21.6039 14.03 21.3768 14.0213 20.9226 14.0039C20.2541 13.9784 19.5952 14.119 18.9963 14.3934C17.6404 13.7711 15.9678 13.8214 14.584 14.971C12.761 16.4853 12.4621 19.1133 13.9435 20.9666C14.0873 21.1465 14.2713 21.3509 14.4791 21.5676C14.9383 22.0464 15.1678 22.2858 15.1795 22.4681C15.1899 22.6311 15.1278 22.7769 15.0029 22.8822C14.8632 23 14.543 23 13.9026 23H7.75868C6.95372 23 6.28937 23 5.74818 22.9558C5.18608 22.9099 4.66938 22.8113 4.18404 22.564C3.43139 22.1805 2.81947 21.5686 2.43598 20.816C2.18868 20.3306 2.09012 19.8139 2.0442 19.2518C1.99998 18.7106 1.99999 18.0463 2 17.2413V8.7587C1.99999 7.95375 1.99998 7.28936 2.0442 6.74817C2.09012 6.18608 2.18868 5.66937 2.43598 5.18404C2.81947 4.43139 3.43139 3.81947 4.18404 3.43597C4.66938 3.18868 5.18608 3.09012 5.74818 3.04419C6.10898 3.01472 6.52454 3.00489 7 3.00163V2C7 1.44772 7.44772 1 8 1C8.55229 1 9 1.44772 9 2V3H15V2C15 1.44772 15.4477 1 16 1ZM7 5.00176V6C7 6.55228 7.44772 7 8 7C8.55229 7 9 6.55228 9 6V5H15V6C15 6.55228 15.4477 7 16 7C16.5523 7 17 6.55228 17 6V5.00176C17.4455 5.00489 17.7954 5.01357 18.089 5.03755C18.5274 5.07337 18.7516 5.1383 18.908 5.21799C19.2843 5.40973 19.5903 5.7157 19.782 6.09202C19.8617 6.24842 19.9266 6.47262 19.9624 6.91104C19.9992 7.36113 20 7.94342 20 8.8V9H4V8.8C4 7.94342 4.00078 7.36113 4.03755 6.91104C4.07337 6.47262 4.1383 6.24842 4.21799 6.09202C4.40974 5.7157 4.7157 5.40973 5.09202 5.21799C5.24842 5.1383 5.47262 5.07337 5.91104 5.03755C6.20463 5.01357 6.55447 5.00489 7 5.00176Z" fill="#801ED7"/>
</svg>
